X:190
T:The Rakes of Mallow
R:polka
M:C|
K:G
 "G"G2B2 G2B2| G2B2 cBAG| "D"F2A2 F2A2| F2A2 dcBA|
"G"G2B2 G2B2| G2B2 d3B| "C"cBAG "D"FGAc| "G"B2G2 G4 :|
|: "G"g2fe d2c2| B2c2 d4| g2fe d2c2| B2d2 "D"A4|
"G"g2fe d2c2| B2c2 d4| "C"cBAG "D"FGAc| "G"B2G2 G4 :|
